X:478
T:The golden castle
R:Hornpipe
O:Ireland
C:Junior Crehan
D:Martin Hayes, Martin Hayes
S:Martin Hayes Via Mike Long Simplified by g:\working\abc\webboo~1\irishf~7.abc
Z:Transcription, chords:Mike Long
M:4/4
L:1/8
K:F
GF|\
"Gm"DGGF G2 (3(ABc)|"Bb"dcde "F"f2ga|\
"Gm"gfdc "F"AdcA|"Gm"GA (3(GFD) "F"F2GF|\
"Gm"DGGF G2 (3(ABc)|
"Bb"dcde "F"f2ga|\
"Gm"gfdc "F"AdcA|"Gm"G2GF G2:|\
|:(3(ABc)|\
"Gm"dgga b2ag|"F"afde f2ga|
"Gm"gfdc "F"AdcA|"Gm"GA (3(GFD) "F"F2GF|\
"Gm"DGGF G2 (3(ABc)|"Bb"dcde "F"f2ga|\
"Gm"gfdc "F"AdcA|"Gm"G2GF G2 :|
